X: 579
T: Dinle Sözüm Ey Dilrubâ
C: III. Selim (İlhâmî)
O: Turkey
F: http://compmusic.upf.edu/node/140
N: acemasiran--sarki--aksak--dinle_sozum--iii_selim
N: makam= acemasiran
N: form= sarki
N: usul= aksak = 9/8
M: 9/8
L: 1/16
K: C _B   
Q: 1/4=156
%%MIDI tuningsystem comma53
z4 e2f2 g2a2 b6 | b3aa3gg2 _7/8a2c'_1/4b agfe  | \
w:  Din le  sö *  züm   |  ey  *  dil *  ru *  bâ    | 
f4 aggf feed d2e2 dc | 
w:  *  Gi *  de *  lim  *  *  *  mec  | 
c2 g2^f2 g2_ed c2d2 edc=B  | c6de fede f6 | \
w:  *  li *  *  se  *  *  ten  |  hâ   Yâr_ *  ey   | 
f3ee3dd3cd2 e2dc  | 
w:  yâr    | 
c4 d2e2 f4 g4 f_e | d4c2 d2c2 B2_e4ed  | \
w:  *  E de lim  sâ  |  *  yen de  sa *  fâ    | 
_e4 g2f2 e2d2 c2=B2 c2 | 
w:  *  Et me  ce *  fâ   | 
z2 c2=B2 c2_AG F2G2 AGFE  | F6de fede f6 | \
w:  ba *  *  na  *  *  mâ  |  hım   Yâr_ *  ey   | 
f3ee3dd4d2 e2dc  | 
w:  yâr   | 
c2a4ag gffe f4 fe | f4d2 e2f4g6  | f2b2 a2g2 f2_e2 d2c2 B2 | 
w:  *  yâr  a *  man  *  a *  man    |  *  Nev res te sin   |  ah   | 
d2 cBd2 cBA3GG2 A2GF  | F3b abga fgef d4 c2 | 
w:  al *  *  *  *  *  ma  *  â  |  hım   ARANAĞME  | 
d2 cde2 def2 efg6  | f3b abga fgef decd cB | 
w:   |   | 
AB cdcB AGAG FEF6  | F3b abga fgef d4 c2 | 
w:   |  hım   ARANAĞME  | 
d2 cde2 def2 efg6  | f3b abga fgef decd cB | 
w:   |   | 
AB cdcB AGAG FEF6  | z4 e2f2 g2a2 b6 | \
w:   |  Din le  sö *  züm   | 
b3aa3gg2 _7/8a2c'_1/4b agfe  | 
w:  ey  *  dil *  ru *  bâ    | 
f4 aggf feed d2e2 dc | c2 g2^f2 g2_ed c2d2 edc=B  | 
w:  *  Gi *  de *  lim  *  *  *  mec  |  *  li *  *  se  *  *  ten  | 
c6de fede f6 | f3ee3dd3cd2 e2dc  | c4 d2e2 f4 g4 f_e | 
w:  hâ   Yâr_ *  ey   |  yâr    |  *  E de lim  sâ  | 
d4c2 d2c2 B2_e4ed  | _e4 g2f2 e2d2 c2=B2 c2 | \
w:  *  yen de  sa *  fâ    |  *  Et me  ce *  fâ   | 
z2 c2=B2 c2_AG F2G2 AGFE  | 
w:  ba *  *  na  *  *  mâ  | 
F6de fede f6 | f3ee3dd4d2 e2dc  | c2a4ag gffe f4 fe | 
w:  hım   Yâr_ *  ey   |  yâr   |  *  yâr  a *  man  *  a *  man    | 
f4d2 e2f4g6  | f2b2 a2g2 f2_e2 d2c2 B2 | \
w:  *  Nev res te sin   |  ah   | 
d2 cBd2 cBA3GG2 A2GF  | 
w:  al *  *  *  *  *  ma  *  â  | 
F3|
w:  hım    | 


